public/avatar/body/239.svg

<svg xmlns:xlink="http://www.w3.org/1999/xlink" height="82" width="84.85" xmlns="http://www.w3.org/2000/svg"><g transform="translate(37.4 42.25)"><use height="16.3" transform="translate(13.6 -18)" width="12.8" xlink:href="#a"/><use height="16.3" transform="matrix(-1 0 0 1 -5.1 -17.95)" width="12.8" xlink:href="#a"/><use height="38" transform="translate(-11.95 -17.45)" width="32.05" xlink:href="#b"/><use height="37.7" transform="translate(5 -17.35)" width="15.3" xlink:href="#c"/><use height="38.95" transform="translate(-12.45 -17.95)" width="33.05" xlink:href="#d"/><use height="18.7" transform="translate(-12.75 -1.3)" width="33.65" xlink:href="#e"/></g><defs><path d="M27.35 7.4q2.15 4.15 3.55 8.75 1.45 4.7 1.15 9.5-.35 4.95-4.2 8.1-3.8 3.2-8.75 4.05l-2.6.2q-3.6 0-7.05-1.15-4.65-1.6-7.1-5.5Q-.2 27.4.05 23q.2-4.4 2-9.3Q3.85 8.75 7 5.05 10.1 1.3 14.7.1l1.8-.1q1.9.05 3.7.8 4.75 2.05 7.15 6.6" fill="#33a02c" fill-rule="evenodd" transform="translate(-.05)" id="g"/><path d="m14.15-12.2 1.4 2.1 2.8 6.45 1.1 3.4.65 3.55.2 3.6-.1 1.75-.1.3v.3l-.25 1.15-.1.25-.25.85-.45 1.05-.2.25-.05.1-.1.15-.25.5-.7.95-1.7 1.65-.8.55-.2.2-.8.5-.2.2-2.15 1.15-1.1.45-3.55 1-2.25.15q2.35-1.8 4.8-5.85 2.8-4.65 3.95-9.7 3-13.65-7.95-22.15l1.15.2 3.05 1.3 2.05 1.4 2.1 2.25" fill="#296300" fill-rule="evenodd" transform="translate(-5 17.35)" id="c"/><path d="M27.35 7.4Q24.95 2.85 20.2.8 17.55-.3 14.7.1 10.1 1.3 7 5.05q-3.15 3.7-4.95 8.65-1.8 4.9-2 9.3-.25 4.4 2.3 8.35 2.45 3.9 7.1 5.5 4.65 1.55 9.65.95 4.95-.85 8.75-4.05 3.85-3.15 4.2-8.1.3-4.8-1.15-9.5-1.4-4.6-3.55-8.75Z" fill="none" stroke="#000" stroke-linecap="round" stroke-linejoin="round" transform="translate(.45 .5)" id="h"/><use height="16.3" width="12.8" xlink:href="#f" id="a"/><use height="38" width="32.05" xlink:href="#g" id="b"/><use height="38.95" width="33.05" xlink:href="#h" id="d"/><g id="f" fill-rule="evenodd"><path d="m3.3-4.7.6.15q.2.2.05.55-1.3 2.4-.6 3.75.6 1 2.6 1 .4 0 .5.4.1.4-.3.55-1.35.7-1.55 1.7Q4.25 5 5.9 6.95q.25.25 0 .6t-.6.15q-3.25-1.3-6.05.35l-.45.05-.3-.35Q-3.35.9-6.25-2.25l-.1-.45.3-.35Q-3-4-1.55-7.85q.2-.45.6-.3.45.1.35.5-.15 2.2 1 3.05l2.9-.1" fill="#4f0000" transform="translate(6.35 8.2)"/><path d="M4.65 1.65Q3.3 2.85 3.7 4.7l.65 1.65q-2.7-.65-5.05.6-1.6-6-4.4-9.4 2.35-1 3.65-3.4.9 3.25 4.1 2.5-1.5 3.95 2 5" fill="#d80000" transform="translate(6.35 8.2)"/><path d="M2.45-.05Q-.65.4-2.4 2.5l-1-2.1 4.75-3.55 1.3-.2q-.75 2-.2 3.3m1.15 4.4q-2.75.25-4.65 1.5L-1.8 3.9Q-.35 3 4.55 1.6l.1.05Q3.4 2.75 3.6 4.35m-5.05-10.2q.25.95.85 1.6L-2.75-2.9q-1.4 1.15-1.45 1.85l-.9-1.4q2.35-1 3.65-3.4" fill="#8f0000" transform="translate(6.35 8.2)"/><path d="M3.1-3.1Q.65-2-3.65.8l-.55-.85Q-.35-2.6 2.7-4l.4.9m2 5.3q-3.5.5-7.05 2.2l-.45-.9q3.55-1.7 7.35-2.3l.15 1" fill="#4f0000" transform="translate(6.35 8.2)"/></g><g id="e"><path d="M-9.35 8.4q-1.45 2.45-2.2 1.75-.85-.7-.2-3.65l9.95 6.05q-.8 3.05-3.4 2.4-2.45-.6-1.25-4.25-1 2.7-2.8 1.75-1.8-.95-.1-4.05" fill="#33a02c" fill-rule="evenodd" transform="translate(12.75 1.3)"/><path d="M-11.75 6.5q-1 2.65.1 3.5.95.75 2.15-1.25l.25-.5m-.25.5q-1.45 2.8.25 3.7 1.8.95 2.8-1.75l.15-.4m4.5 2.25q-.8 3.05-3.4 2.4-2.45-.6-1.25-4.25" fill="none" stroke="#333" stroke-linecap="round" stroke-linejoin="round" transform="translate(12.75 1.3)"/><path d="M20.15 6.55q.25 3.25-.5 3.85-.55.5-1.45-1.05 1.05 2.4-.5 3.2-1.8.9-2.8-1.8 1.2 3.65-1.25 4.25-2.65.65-3.4-2.4l9.9-6.05" fill="#296300" fill-rule="evenodd" transform="translate(12.75 1.3)"/><path d="m17.65 8.35.5.95q.9 1.5 1.65.9.95-.75.35-3.65m-5.4 3.8.15.4q1 2.7 2.8 1.8 1.55-.8.45-3.25m-7.9 3.3q.75 3.05 3.4 2.4 2.45-.6 1.25-4.25" fill="none" stroke="#333" stroke-linecap="round" stroke-linejoin="round" transform="translate(12.75 1.3)"/><path d="M10.85 11V9.85q.2-1.2.55-1.45.9-.75 1.3-.6l.4.6q1.1 2.55.4 3.85-.7 1.1-1.7.8-.95-.2-.95-2.05" fill="#33a02c" fill-rule="evenodd" transform="translate(12.75 1.3)"/><path d="M-5.85 13.95q2.45-.15 3.4-2.45 0 1.7-.45 2.25-1.55 1.75-2.95.2M-9.4 11.6q.5.05 1.7-1.05l1.2-1.45q-.4 2.2-1.7 3-.6.5-1.1.25-.3-.1-.15-.8l.05.05" fill="#296300" fill-rule="evenodd" transform="translate(12.75 1.3)"/><path d="M5.65 16.7q-6.4 1.05-8.8-4.35 2.3-5.5 7.5-5.35 3.35.15 5.85 2.15 1.75 1.4 2.15 2.65-.3 1.7-2.25 3.1-1.95 1.4-4.45 1.8" fill-rule="evenodd" transform="translate(12.75 1.3)"/><path d="M4.6 6.75q3.2 0 5.05 1.95 1.2 1.2 1.2 2.8v.05q0 1.6-1.3 2.8-1.95 1.9-5.1 1.8-2.6-.05-4.4-1.45-1.85-1.4-1.8-3.35 0-1.55 1.25-2.8 1.95-1.9 5.1-1.8" fill="#7d1f00" fill-rule="evenodd" transform="translate(12.75 1.3)"/><path d="M9.9 11.55q-.05 1.6-1.6 2.7-1.6 1.1-3.8 1.05-2.2-.05-3.75-1.2-1.6-1.15-1.55-2.75.05-1.6 1.6-2.7 1.6-1.15 3.8-1.1 2.2.05 3.75 1.2 1.55 1.2 1.55 2.8" fill="#c28c00" fill-rule="evenodd" transform="translate(12.75 1.3)"/><path d="m8.45 10.75.05.15q.35.95-.35 1.95-.7.9-1.75 1.1L4.75 14q-2.55 0-3.4-1.15Q.2 11.2 1.2 9.95q1.15-1.45 3.9-1.1 2.7.45 3.35 1.9" fill="#dba800" fill-rule="evenodd" transform="translate(12.75 1.3)"/><path d="M2.65 12.2q-1.45-.7-.6-1.5.45-.35 1.65-.45l2.4-.05.95.65q.6.6.55 1 0 .65-1.05.85-2.3.4-3.9-.5" fill="#f0d400" fill-rule="evenodd" transform="translate(12.75 1.3)"/><path d="m4.15 6.65 3.2.5q3.45 1.25 5.5 4.75v.45q-2.65 5.65-9.3 5-6.15-.5-7.35-4.85l.05-.35q1.45-2.8 3.1-3.95Q1 7.05 4.15 6.65m-.5 9.75q5.75.45 8.15-4.25-1.85-3-4.8-4.05l-2.75-.45Q1.5 8 .15 8.9q-1.5.95-2.9 3.5 1.1 3.5 6.4 4" fill="#333" fill-rule="evenodd" transform="translate(12.75 1.3)"/><path d="M4.55 7.85q2.75 2.8-.3 7.25-.85-.55-1.05-2.95Q3 9.4 4.55 7.85" fill="#f0d400" fill-rule="evenodd" transform="translate(12.75 1.3)"/><path d="M4.5 8.4q1.45 2.35-.15 6.15-.45-.5-.55-2.5-.15-2.3.7-3.65" fill-rule="evenodd" transform="translate(12.75 1.3)"/><path d="M2.15 8.3q-2.4 1.85-1.5 5.25Q-.9 12.5-.5 10.7q.45-1.85 2.65-2.4" fill="#fcf9f7" fill-rule="evenodd" transform="translate(12.75 1.3)"/><path d="M5.75 14.85q3.65-2.05 2.6-5.9 1.85 1.5 1.05 3.65-.9 2.2-3.65 2.25" fill="#913800" fill-rule="evenodd" transform="translate(12.75 1.3)"/><path d="M4.2 9.75q0 .8-.85.8t-.85-.8q0-.85.85-.85t.85.85m-.85 1.45q0 .5-.45.5-.5 0-.5-.5t.5-.5q.45 0 .45.5" fill="#fcf9f7" fill-rule="evenodd" transform="translate(12.75 1.3)"/><path d="M-10.9 2.75Q-11.8 2-11-.8l9.95 6.05q-.8 3.05-3.4 2.4-2.5-.6-1.2-4.35Q-6.7 6.05-8.5 5.15q-1.85-.95 0-4.15-1.5 2.45-2.4 1.75" fill="#33a02c" fill-rule="evenodd" transform="translate(12.75 1.3)"/><path d="M-1.05 5.25q-.8 3.05-3.4 2.4-2.5-.6-1.2-4.35Q-6.7 6.05-8.5 5.15-10.35 4.2-8.55 1q-1.5 2.55-2.25 2.05-.8-.45-.2-3.85m5.35 4.1.1-.35" fill="none" stroke="#333" stroke-linecap="round" stroke-linejoin="round" transform="translate(12.75 1.3)"/><path d="M-4.25 6.25q.8-.05 1.65-.65l1-1.15q.7 1.4-1.25 2.45-1.9 1.05-2.6-.9l1.2.25M-8.4 4.8l-.45-1.35Q-7.55 4.7-6 2.4q-.5 2.75-2.4 2.4m27.75-1.9q-.9.7-2.35-1.75 1.8 3.25-.05 4.15-1.8.95-2.8-1.75 1.2 3.65-1.25 4.25-2.65.65-3.4-2.4l9.9-6.05q.85 2.8-.05 3.55" fill="#296300" fill-rule="evenodd" transform="translate(12.75 1.3)"/><path d="M13.85 2.8q1.65 3.25-.6 4.65-1.55 1-4.15-3.15l4.75-1.5" fill="#33a02c" fill-rule="evenodd" transform="translate(12.75 1.3)"/><path d="M9.5 5.4q.75 3.05 3.4 2.4 2.45-.6 1.25-4.25l-.15-.4m.15.4q1 2.7 2.8 1.75 1.85-.9.05-4.15L16.85.9m.15.25q1.5 2.55 2.25 2.1.8-.5.15-3.9" fill="none" stroke="#333" stroke-linecap="round" stroke-linejoin="round" transform="translate(12.75 1.3)"/><path d="m12.7 6.45 1.2-.3q-.7 1.95-2.65.9Q9.3 6 10.05 4.65l1 1.1q.6.5 1.65.7m4.15-1.5q-1.2.2-1.95-.95-.5-.85-.5-1.45 1.6 2.3 2.9 1.05.1 1.05-.45 1.35" fill="#296300" fill-rule="evenodd" transform="translate(12.75 1.3)"/></g></defs></svg>

<?xml version="1.0" encoding="UTF-8" standalone="no"?>
<svg xmlns:xlink="http://www.w3.org/1999/xlink" height="82.0px" width="84.85px" xmlns="http://www.w3.org/2000/svg">
  <g transform="matrix(1.0, 0.0, 0.0, 1.0, 37.4, 42.25)">
    <use height="16.3" transform="matrix(1.0, 0.0, 0.0, 1.0, 13.6, -18.0)" width="12.8" xlink:href="#sprite0"/>
    <use height="16.3" transform="matrix(-1.0, 0.0, 0.0, 1.0, -5.1, -17.95)" width="12.8" xlink:href="#sprite0"/>
    <use height="38.0" transform="matrix(1.0, 0.0, 0.0, 1.0, -11.95, -17.45)" width="32.05" xlink:href="#sprite1"/>
    <use height="37.7" transform="matrix(1.0, 0.0, 0.0, 1.0, 5.0, -17.35)" width="15.3" xlink:href="#shape2"/>
    <use height="38.95" transform="matrix(1.0, 0.0, 0.0, 1.0, -12.45, -17.95)" width="33.05" xlink:href="#sprite2"/>
    <use height="18.7" transform="matrix(1.0, 0.0, 0.0, 1.0, -12.75, -1.3)" width="33.65" xlink:href="#shape4"/>
  </g>
  <defs>
    <g id="sprite0" transform="matrix(1.0, 0.0, 0.0, 1.0, 6.35, 8.2)">
      <use height="16.3" transform="matrix(1.0, 0.0, 0.0, 1.0, -6.35, -8.2)" width="12.8" xlink:href="#shape0"/>
    </g>
    <g id="shape0" transform="matrix(1.0, 0.0, 0.0, 1.0, 6.35, 8.2)">
      <path d="M3.3 -4.7 L3.9 -4.55 Q4.1 -4.35 3.95 -4.0 2.65 -1.6 3.35 -0.25 3.95 0.75 5.95 0.75 6.35 0.75 6.45 1.15 6.55 1.55 6.15 1.7 4.8 2.4 4.6 3.4 4.25 5.0 5.9 6.95 6.15 7.2 5.9 7.55 5.65 7.9 5.3 7.7 2.05 6.4 -0.75 8.05 L-1.2 8.1 -1.5 7.75 Q-3.35 0.9 -6.25 -2.25 L-6.35 -2.7 -6.05 -3.05 Q-3.0 -4.0 -1.55 -7.85 -1.35 -8.3 -0.95 -8.15 -0.5 -8.05 -0.6 -7.65 -0.75 -5.45 0.4 -4.6 L3.3 -4.7" fill="#4f0000" fill-rule="evenodd" stroke="none"/>
      <path d="M4.65 1.65 Q3.3 2.85 3.7 4.7 L4.35 6.35 Q1.65 5.7 -0.7 6.95 -2.3 0.95 -5.1 -2.45 -2.75 -3.45 -1.45 -5.85 -0.55 -2.6 2.65 -3.35 1.15 0.6 4.65 1.65" fill="#d80000" fill-rule="evenodd" stroke="none"/>
      <path d="M2.45 -0.05 Q-0.65 0.4 -2.4 2.5 L-3.4 0.4 1.35 -3.15 2.65 -3.35 Q1.9 -1.35 2.45 -0.05" fill="#8f0000" fill-rule="evenodd" stroke="none"/>
      <path d="M3.6 4.35 Q0.85 4.6 -1.05 5.85 L-1.8 3.9 Q-0.35 3.0 4.55 1.6 L4.65 1.65 Q3.4 2.75 3.6 4.35" fill="#8f0000" fill-rule="evenodd" stroke="none"/>
      <path d="M-1.45 -5.85 Q-1.2 -4.9 -0.6 -4.25 L-2.75 -2.9 Q-4.15 -1.75 -4.2 -1.05 L-5.1 -2.45 Q-2.75 -3.45 -1.45 -5.85" fill="#8f0000" fill-rule="evenodd" stroke="none"/>
      <path d="M3.1 -3.1 Q0.65 -2.0 -3.65 0.8 L-4.2 -0.05 Q-0.35 -2.6 2.7 -4.0 L3.1 -3.1" fill="#4f0000" fill-rule="evenodd" stroke="none"/>
      <path d="M5.1 2.2 Q1.6 2.7 -1.95 4.4 L-2.4 3.5 Q1.15 1.8 4.95 1.2 L5.1 2.2" fill="#4f0000" fill-rule="evenodd" stroke="none"/>
    </g>
    <g id="sprite1" transform="matrix(1.0, 0.0, 0.0, 1.0, -0.05, 0.0)">
      <use height="38.0" transform="matrix(1.0, 0.0, 0.0, 1.0, 0.05, 0.0)" width="32.05" xlink:href="#shape1"/>
    </g>
    <g id="shape1" transform="matrix(1.0, 0.0, 0.0, 1.0, -0.05, 0.0)">
      <path d="M27.35 7.4 Q29.5 11.55 30.9 16.15 32.35 20.85 32.05 25.65 31.7 30.6 27.85 33.75 24.05 36.95 19.1 37.8 L16.5 38.0 Q12.9 38.0 9.45 36.85 4.8 35.25 2.35 31.35 -0.2 27.4 0.05 23.0 0.25 18.6 2.05 13.7 3.85 8.75 7.0 5.05 10.1 1.3 14.7 0.1 L16.5 0.0 Q18.4 0.05 20.2 0.8 24.95 2.85 27.35 7.4" fill="#33a02c" fill-rule="evenodd" stroke="none"/>
    </g>
    <g id="shape2" transform="matrix(1.0, 0.0, 0.0, 1.0, -5.0, 17.35)">
      <path d="M14.15 -12.2 L15.55 -10.1 18.35 -3.65 19.45 -0.25 20.1 3.3 20.3 6.9 20.2 8.65 20.1 8.95 20.1 9.25 19.85 10.4 19.75 10.65 19.5 11.5 19.05 12.55 18.85 12.8 18.8 12.9 18.7 13.05 18.45 13.55 17.75 14.5 16.05 16.15 15.25 16.7 15.05 16.9 14.25 17.4 14.05 17.6 11.9 18.75 10.8 19.2 7.25 20.2 5.0 20.35 Q7.35 18.55 9.8 14.5 12.6 9.85 13.75 4.8 16.75 -8.85 5.8 -17.35 L6.95 -17.15 10.0 -15.85 12.05 -14.45 14.15 -12.2" fill="#296300" fill-rule="evenodd" stroke="none"/>
    </g>
    <g id="sprite2" transform="matrix(1.0, 0.0, 0.0, 1.0, 0.45, 0.5)">
      <use height="38.95" transform="matrix(1.0, 0.0, 0.0, 1.0, -0.45, -0.5)" width="33.05" xlink:href="#shape3"/>
    </g>
    <g id="shape3" transform="matrix(1.0, 0.0, 0.0, 1.0, 0.45, 0.5)">
      <path d="M27.35 7.4 Q24.95 2.85 20.2 0.8 17.55 -0.3 14.7 0.1 10.1 1.3 7.0 5.05 3.85 8.75 2.05 13.7 0.25 18.6 0.05 23.0 -0.2 27.4 2.35 31.35 4.8 35.25 9.45 36.85 14.1 38.4 19.1 37.8 24.05 36.95 27.85 33.75 31.7 30.6 32.05 25.65 32.35 20.85 30.9 16.15 29.5 11.55 27.35 7.4 Z" fill="none" stroke="#000000" stroke-linecap="round" stroke-linejoin="round" stroke-width="1.0"/>
    </g>
    <g id="shape4" transform="matrix(1.0, 0.0, 0.0, 1.0, 12.75, 1.3)">
      <path d="M-9.35 8.4 Q-10.8 10.85 -11.55 10.15 -12.4 9.45 -11.75 6.5 L-1.8 12.55 Q-2.6 15.6 -5.2 14.95 -7.65 14.35 -6.45 10.7 -7.45 13.4 -9.25 12.45 -11.05 11.5 -9.35 8.4" fill="#33a02c" fill-rule="evenodd" stroke="none"/>
      <path d="M-11.75 6.5 Q-12.75 9.15 -11.65 10.0 -10.7 10.75 -9.5 8.75 L-9.25 8.25 M-9.5 8.75 Q-10.95 11.55 -9.25 12.45 -7.45 13.4 -6.45 10.7 L-6.3 10.3 M-1.8 12.55 Q-2.6 15.6 -5.2 14.95 -7.65 14.35 -6.45 10.7" fill="none" stroke="#333333" stroke-linecap="round" stroke-linejoin="round" stroke-width="1.0"/>
      <path d="M20.15 6.55 Q20.4 9.8 19.65 10.4 19.1 10.9 18.2 9.35 19.25 11.75 17.7 12.55 15.9 13.45 14.9 10.75 16.1 14.4 13.65 15.0 11.0 15.65 10.25 12.6 L20.15 6.55" fill="#296300" fill-rule="evenodd" stroke="none"/>
      <path d="M17.65 8.35 L18.15 9.3 Q19.05 10.8 19.8 10.2 20.75 9.45 20.15 6.55 M14.75 10.35 L14.9 10.75 Q15.9 13.45 17.7 12.55 19.25 11.75 18.15 9.3 M10.25 12.6 Q11.0 15.65 13.65 15.0 16.1 14.4 14.9 10.75" fill="none" stroke="#333333" stroke-linecap="round" stroke-linejoin="round" stroke-width="1.0"/>
      <path d="M10.85 11.0 L10.85 9.85 Q11.05 8.65 11.4 8.4 12.3 7.65 12.7 7.8 L13.1 8.4 Q14.2 10.95 13.5 12.25 12.8 13.35 11.8 13.05 10.85 12.85 10.85 11.0" fill="#33a02c" fill-rule="evenodd" stroke="none"/>
      <path d="M-5.85 13.95 Q-3.4 13.8 -2.45 11.5 -2.45 13.2 -2.9 13.75 -4.45 15.5 -5.85 13.95" fill="#296300" fill-rule="evenodd" stroke="none"/>
      <path d="M-9.4 11.6 Q-8.9 11.65 -7.7 10.55 L-6.5 9.1 Q-6.9 11.3 -8.2 12.1 -8.8 12.6 -9.3 12.35 -9.6 12.25 -9.45 11.55 L-9.4 11.6" fill="#296300" fill-rule="evenodd" stroke="none"/>
      <path d="M5.65 16.7 Q-0.75 17.75 -3.15 12.35 -0.85 6.85 4.35 7.0 7.7 7.15 10.2 9.15 11.95 10.55 12.35 11.8 12.05 13.5 10.1 14.9 8.15 16.3 5.65 16.7" fill="#000000" fill-rule="evenodd" stroke="none"/>
      <path d="M4.6 6.75 Q7.8 6.75 9.65 8.7 10.85 9.9 10.85 11.5 L10.85 11.55 Q10.85 13.15 9.55 14.35 7.6 16.25 4.45 16.15 1.85 16.1 0.05 14.7 -1.8 13.3 -1.75 11.35 -1.75 9.8 -0.5 8.55 1.45 6.65 4.6 6.75" fill="#7d1f00" fill-rule="evenodd" stroke="none"/>
      <path d="M9.9 11.55 Q9.85 13.15 8.3 14.25 6.7 15.35 4.5 15.3 2.3 15.25 0.75 14.1 -0.85 12.95 -0.8 11.35 -0.75 9.75 0.8 8.65 2.4 7.5 4.6 7.55 6.8 7.6 8.35 8.75 9.9 9.95 9.9 11.55" fill="#c28c00" fill-rule="evenodd" stroke="none"/>
      <path d="M8.45 10.75 L8.5 10.9 Q8.85 11.85 8.15 12.85 7.45 13.75 6.4 13.95 L4.75 14.0 Q2.2 14.0 1.35 12.85 0.2 11.2 1.2 9.95 2.35 8.5 5.1 8.85 7.8 9.3 8.45 10.75" fill="#dba800" fill-rule="evenodd" stroke="none"/>
      <path d="M2.65 12.2 Q1.2 11.5 2.05 10.7 2.5 10.35 3.7 10.25 L6.1 10.2 7.05 10.85 Q7.65 11.45 7.6 11.85 7.6 12.5 6.55 12.7 4.25 13.1 2.65 12.2" fill="#f0d400" fill-rule="evenodd" stroke="none"/>
      <path d="M4.15 6.65 L7.35 7.15 Q10.8 8.4 12.85 11.9 L12.85 12.35 Q10.2 18.0 3.55 17.35 -2.6 16.85 -3.8 12.5 L-3.75 12.15 Q-2.3 9.35 -0.65 8.2 1.0 7.05 4.15 6.65 M3.65 16.4 Q9.4 16.85 11.8 12.15 9.95 9.15 7.0 8.1 L4.25 7.65 Q1.5 8.0 0.15 8.9 -1.35 9.85 -2.75 12.4 -1.65 15.9 3.65 16.4" fill="#333333" fill-rule="evenodd" stroke="none"/>
      <path d="M4.55 7.85 Q7.3 10.65 4.25 15.1 3.4 14.55 3.2 12.15 3.0 9.4 4.55 7.85" fill="#f0d400" fill-rule="evenodd" stroke="none"/>
      <path d="M4.5 8.4 Q5.95 10.75 4.35 14.55 3.9 14.05 3.8 12.05 3.65 9.75 4.5 8.4" fill="#000000" fill-rule="evenodd" stroke="none"/>
      <path d="M2.15 8.3 Q-0.25 10.15 0.65 13.55 -0.9 12.5 -0.5 10.7 -0.05 8.85 2.15 8.3" fill="#fcf9f7" fill-rule="evenodd" stroke="none"/>
      <path d="M5.75 14.85 Q9.4 12.8 8.35 8.95 10.2 10.45 9.4 12.6 8.5 14.8 5.75 14.85" fill="#913800" fill-rule="evenodd" stroke="none"/>
      <path d="M4.2 9.75 Q4.2 10.55 3.35 10.55 2.5 10.55 2.5 9.75 2.5 8.9 3.35 8.9 4.2 8.9 4.2 9.75" fill="#fcf9f7" fill-rule="evenodd" stroke="none"/>
      <path d="M3.35 11.2 Q3.35 11.7 2.9 11.7 2.4 11.7 2.4 11.2 2.4 10.7 2.9 10.7 3.35 10.7 3.35 11.2" fill="#fcf9f7" fill-rule="evenodd" stroke="none"/>
      <path d="M-10.9 2.75 Q-11.8 2.0 -11.0 -0.8 L-1.05 5.25 Q-1.85 8.3 -4.45 7.65 -6.95 7.05 -5.65 3.3 -6.7 6.05 -8.5 5.15 -10.35 4.2 -8.5 1.0 -10.0 3.45 -10.9 2.75" fill="#33a02c" fill-rule="evenodd" stroke="none"/>
      <path d="M-1.05 5.25 Q-1.85 8.3 -4.45 7.65 -6.95 7.05 -5.65 3.3 -6.7 6.05 -8.5 5.15 -10.35 4.2 -8.55 1.0 -10.05 3.55 -10.8 3.05 -11.6 2.6 -11.0 -0.8 M-5.65 3.3 L-5.55 2.95" fill="none" stroke="#333333" stroke-linecap="round" stroke-linejoin="round" stroke-width="1.0"/>
      <path d="M-4.25 6.25 Q-3.45 6.2 -2.6 5.6 L-1.6 4.45 Q-0.9 5.85 -2.85 6.9 -4.75 7.95 -5.45 6.0 L-4.25 6.25" fill="#296300" fill-rule="evenodd" stroke="none"/>
      <path d="M-8.4 4.8 L-8.85 3.45 Q-7.55 4.7 -6.0 2.4 -6.5 5.15 -8.4 4.8" fill="#296300" fill-rule="evenodd" stroke="none"/>
      <path d="M19.35 2.9 Q18.45 3.6 17.0 1.15 18.8 4.4 16.95 5.3 15.15 6.25 14.15 3.55 15.35 7.2 12.9 7.8 10.25 8.45 9.5 5.4 L19.4 -0.65 Q20.25 2.15 19.35 2.9" fill="#296300" fill-rule="evenodd" stroke="none"/>
      <path d="M13.85 2.8 Q15.5 6.05 13.25 7.45 11.7 8.45 9.1 4.3 L13.85 2.8" fill="#33a02c" fill-rule="evenodd" stroke="none"/>
      <path d="M9.5 5.4 Q10.25 8.45 12.9 7.8 15.35 7.2 14.15 3.55 L14.0 3.15 M14.15 3.55 Q15.15 6.25 16.95 5.3 18.8 4.4 17.0 1.15 L16.85 0.9 M17.0 1.15 Q18.5 3.7 19.25 3.25 20.05 2.75 19.4 -0.65" fill="none" stroke="#333333" stroke-linecap="round" stroke-linejoin="round" stroke-width="1.0"/>
      <path d="M12.7 6.45 L13.9 6.15 Q13.2 8.1 11.25 7.05 9.3 6.0 10.05 4.65 L11.05 5.75 Q11.65 6.25 12.7 6.45" fill="#296300" fill-rule="evenodd" stroke="none"/>
      <path d="M16.85 4.95 Q15.65 5.15 14.9 4.0 14.4 3.15 14.4 2.55 16.0 4.85 17.3 3.6 17.4 4.65 16.85 4.95" fill="#296300" fill-rule="evenodd" stroke="none"/>
    </g>
  </defs>
</svg>
